src/Palette/symbolic/apps/internet-mail-symbolic.svg

<?xml version="1.0" encoding="UTF-8" standalone="no"?>
<!-- Created with Inkscape (http://www.inkscape.org/) -->

<svg
   width="16"
   height="16"
   viewBox="0 0 16 16"
   version="1.1"
   id="svg5"
   inkscape:version="1.2.2 (1:1.2.2+202305151914+b0a8486541)"
   sodipodi:docname="internet-mail-symbolic.svg"
   xmlns:inkscape="http://www.inkscape.org/namespaces/inkscape"
   xmlns:sodipodi="http://sodipodi.sourceforge.net/DTD/sodipodi-0.dtd"
   xmlns="http://www.w3.org/2000/svg"
   xmlns:svg="http://www.w3.org/2000/svg">
  <sodipodi:namedview
     id="namedview7"
     pagecolor="#ffffff"
     bordercolor="#000000"
     borderopacity="0.25"
     inkscape:showpageshadow="2"
     inkscape:pageopacity="0.0"
     inkscape:pagecheckerboard="0"
     inkscape:deskcolor="#d1d1d1"
     inkscape:document-units="px"
     showgrid="false"
     inkscape:zoom="51.875"
     inkscape:cx="8"
     inkscape:cy="8"
     inkscape:window-width="1920"
     inkscape:window-height="1008"
     inkscape:window-x="0"
     inkscape:window-y="0"
     inkscape:window-maximized="1"
     inkscape:current-layer="svg5" />
  <defs
     id="defs2" />
  <path
     d="m 2.0000496,0.9999998 c -1.03099998,0.063 -1,1 -1,1 V 14 c 0,0 -0.030998,0.938 1,1 H 14.00005 c 1,0 1,-1 1,-1 V 1.9999998 c 0,0 -2e-6,-1 -1,-1 m -11.0000004,2 H 13.00005 V 10 h -3 c -4.019e-4,0.11195 -0.0102,0.22367 -0.0293,0.33398 -0.0012,0.0071 -0.0026,0.01436 -0.0039,0.02149 -0.01962,0.109625 -0.04837,0.21742 -0.08594,0.32226 -0.0014,0.0039 -0.0025,0.0078 -0.0039,0.01172 -0.03921,0.107459 -0.08756,0.211357 -0.14453,0.31055 -0.175588,0.304221 -0.4281996,0.556833 -0.7324205,0.73242 -0.099193,0.05697 -0.2030907,0.105323 -0.31055,0.14453 -0.00388,0.0014 -0.00783,0.0025 -0.011719,0.0039 -0.1048431,0.03757 -0.2126412,0.06632 -0.32227,0.08594 -0.00712,0.0013 -0.014337,0.0027 -0.021484,0.0039 -0.1103104,0.0191 -0.2220295,0.0289 -0.33398,0.0293 -0.1119505,-4.02e-4 -0.2236696,-0.0102 -0.33398,-0.0293 -0.00717,-0.0013 -0.01433,-0.0026 -0.021484,-0.0039 -0.1096288,-0.01962 -0.2174269,-0.04837 -0.32227,-0.08594 -0.00391,-0.0013 -0.00782,-0.0026 -0.011719,-0.0039 C 7.2031443,11.83774 7.0992467,11.78939 7.0000536,11.73242 6.6958327,11.556833 6.4432208,11.304221 6.2676336,11 c -0.056969,-0.09919 -0.1053228,-0.203091 -0.14453,-0.31055 -0.00132,-0.0039 -0.00262,-0.0078 -0.00391,-0.01172 -0.037568,-0.10484 -0.066314,-0.212635 -0.085938,-0.32226 -0.00134,-0.0072 -0.00264,-0.01432 -0.00389,-0.02149 C 6.0102646,10.22367 6.0004646,10.11195 6.0000636,10 h -3 z m 0,9.0000002 h 1.5352 c 0.2209191,0.376501 0.5019785,0.714301 0.83203,1 h -2.3672 v -1 z m 8.4648004,0 h 2.5352 v 1 h -3.3672 c 0.330052,-0.285699 0.61111,-0.623499 0.832029,-1 z M 4.0000496,3.9999998 v 5 H 12.00005 v -5 z m 1,1 3,1.5 2.9980004,-1.5 v 1 l -2.9980004,1.5 -3,-1.5 z"
     id="path399"
     style="fill:#4d4d4d;fill-opacity:1" />
</svg>

<?xml version="1.0" encoding="UTF-8" standalone="no"?>
<!-- Created with Inkscape (http://www.inkscape.org/) -->

<svg
   width="16"
   height="16"
   viewBox="0 0 16 16"
   version="1.1"
   id="svg5"
   inkscape:version="1.3 (0e150ed6c4, 2023-07-21)"
   sodipodi:docname="internet-mail-symbolic.svg"
   xmlns:inkscape="http://www.inkscape.org/namespaces/inkscape"
   xmlns:sodipodi="http://sodipodi.sourceforge.net/DTD/sodipodi-0.dtd"
   xmlns="http://www.w3.org/2000/svg"
   xmlns:svg="http://www.w3.org/2000/svg">
  <sodipodi:namedview
     id="namedview7"
     pagecolor="#ffffff"
     bordercolor="#000000"
     borderopacity="0.25"
     inkscape:showpageshadow="2"
     inkscape:pageopacity="0.0"
     inkscape:pagecheckerboard="0"
     inkscape:deskcolor="#d1d1d1"
     inkscape:document-units="px"
     showgrid="false"
     inkscape:zoom="51.875"
     inkscape:cx="8.0096386"
     inkscape:cy="8"
     inkscape:window-width="1920"
     inkscape:window-height="1004"
     inkscape:window-x="0"
     inkscape:window-y="0"
     inkscape:window-maximized="1"
     inkscape:current-layer="svg5" />
  <defs
     id="defs2" />
  <path
     id="path399"
     style="fill:#4d4d4d;fill-opacity:1"
     d="M 2 1 C 0.96900105 1.0629999 1 2 1 2 L 1 14 C 1 14 0.96900303 14.938 2 15 L 14 15 C 14.999999 15 15 14 15 14 L 15 2 C 15 2 14.999997 1 14 1 L 2 1 z M 3 3 L 13 3 L 13 10 L 10 10 C 9.9995981 10.11195 9.9898031 10.223674 9.9707031 10.333984 C 9.9695031 10.341084 9.9680969 10.348339 9.9667969 10.355469 C 9.9471769 10.465094 9.9184293 10.572894 9.8808594 10.677734 C 9.8794594 10.681634 9.8783531 10.685533 9.8769531 10.689453 C 9.8377432 10.796912 9.7893918 10.900807 9.7324219 11 C 9.5568341 11.304221 9.3042206 11.556835 9 11.732422 C 8.9008071 11.789392 8.7969123 11.837746 8.6894531 11.876953 C 8.6855731 11.878353 8.6816234 11.879459 8.6777344 11.880859 C 8.5728914 11.918429 8.4650974 11.947177 8.3554688 11.966797 C 8.3483488 11.968097 8.3411314 11.969503 8.3339844 11.970703 C 8.2236741 11.989803 8.1119504 11.9996 8 12 C 7.8880496 11.999598 7.7763259 11.989803 7.6660156 11.970703 C 7.6588456 11.969403 7.6516852 11.968097 7.6445312 11.966797 C 7.5349026 11.947177 7.4271086 11.918429 7.3222656 11.880859 C 7.3183556 11.879559 7.3144459 11.878253 7.3105469 11.876953 C 7.2030878 11.837743 7.099193 11.789392 7 11.732422 C 6.6957794 11.556835 6.4431651 11.304221 6.2675781 11 C 6.2106092 10.90081 6.162254 10.796912 6.1230469 10.689453 C 6.1217269 10.685553 6.1204306 10.681654 6.1191406 10.677734 C 6.0815727 10.572894 6.0528271 10.465094 6.0332031 10.355469 C 6.0318631 10.348269 6.0305469 10.341154 6.0292969 10.333984 C 6.0101959 10.223674 6.000401 10.11195 6 10 L 3 10 L 3 3 z M 4 4 L 4 9 L 12 9 L 12 4 L 4 4 z M 5 5 L 8 6.5 L 10.998047 5 L 10.998047 6 L 8 7.5 L 5 6 L 5 5 z M 3 12 L 4.5351562 12 C 4.7560751 12.376501 5.0371363 12.714301 5.3671875 13 L 3 13 L 3 12 z M 11.464844 12 L 13 12 L 13 13 L 10.632812 13 C 10.962864 12.714301 11.243925 12.376501 11.464844 12 z " />
</svg>
